dist/svg/cart.svg

<!-- Generated by Trend Micro Style Portal -->
<svg version="1.1" xmlns="http://www.w3.org/2000/svg" width="16" height="16" viewBox="0 0 16 16">
  <title>cart</title>
  <path fill="rgb(34,34,34)" d="M6 15c0 0.6-0.4 1-1 1s-1-0.4-1-1 0.4-1 1-1 1 0.4 1 1zM13 14c-0.6 0-1 0.4-1 1s0.4 1 1 1 1-0.4 1-1-0.4-1-1-1zM14.2 11h-10l0.2 1h9.6v1h-10.4l-2-11h-1.6v-1h2.4l0.4 2h13.2l-1.8 8zM14.7 4h-2.7l-0.1 2h2.4l0.4-2zM10.8 6l0.2-2h-4l0.1 2h3.7zM7.3 7l0.2 3h3.1l0.2-3h-3.5zM3 4l0.4 2h2.9l-0.3-2h-3zM4.1 10h2.4l-0.3-3h-2.7l0.6 3zM13.5 10l0.6-3h-2.3l-0.2 3h1.9z"></path>
</svg>

<svg width="16" height="16" viewBox="0 0 16 16" fill="rgb(34, 34, 34)" xmlns="http://www.w3.org/2000/svg"><title>cart</title><path d="M6 15C6 15.6 5.6 16 5 16C4.4 16 4 15.6 4 15C4 14.4 4.4 14 5 14C5.6 14 6 14.4 6 15ZM13 14C12.4 14 12 14.4 12 15C12 15.6 12.4 16 13 16C13.6 16 14 15.6 14 15C14 14.4 13.6 14 13 14ZM14.2 11H4.2L4.4 12H14V13H3.6L1.6 2H0V1H2.4L2.8 3H16L14.2 11ZM14.7 4H12L11.9 6H14.3L14.7 4ZM10.8 6L11 4H7L7.1 6H10.8ZM7.3 7L7.5 10H10.6L10.8 7H7.3ZM3 4L3.4 6H6.3L6 4H3ZM4.1 10H6.5L6.2 7H3.5L4.1 10ZM13.5 10L14.1 7H11.8L11.6 10H13.5Z" fill="rgb(34, 34, 34)" fill-opacity="1.00"/></svg>
